web/ui/src/components/theme/input/svgs/hook.svg

<svg height="20" viewBox="0 0 20 20" width="20" xmlns="http://www.w3.org/2000/svg"><g fill="none" fill-rule="evenodd"><path d="m0 0h20v20h-20z" fill="#000" fill-rule="nonzero" opacity="0"/><path d="m17.2820634 11.311795c-.0016596.0156213-.0039412.0312986-.0068634.047005-.6456 3.48-3.6944 6.041212-7.2752 6.041212-2.63877885.0010028-5.07159144-1.4029164-6.39400623-3.6723211l1.67020629.2902429c1.16412187 1.3687393 2.88423341 2.1828961 4.72379994 2.1820662 2.6397034 0 4.9344116-1.661489 5.8162094-4.045715zm-7.2820634-8.711795c3.6124 0 6.68 2.606 7.2908 6.1268.0566644.32651074-.1620893.63713557-.4886.69379998s-.6371356-.16208925-.6938-.48859998c-.5116-2.948-3.082-5.132-6.1084-5.132-3.424 0-6.2 2.776-6.2 6.2 0 .376.0332.7472.0992 1.1112.03999541.2117221-.03660611.4286333-.20068851.5682859-.1640824.1396527-.39044818.1806009-.5930562.1072805s-.35034456-.2496501-.38705529-.4619664c-.07894003-.4371795-.118565-.8805508-.11840051-1.3248 0-4.0868 3.31320051-7.4 7.40000051-7.4zm2.3376 2.9792c1.0680994.56610748 1.8958058 1.49892856 2.3308 2.6268.1127242.30769489-.0422718.64891786-.3481567.76646505-.3058849.11754718-.6495022-.03206579-.7718433-.33606505-.3311279-.85718036-.9604773-1.56606838-1.7724-1.9964-.2890509-.15697457-.3978327-.51740494-.2438876-.80808055.1539452-.29067561.513219-.40321835.8054876-.25231945zm-2.3376-.5792c.3313708 0 .6.26862915.6.6s-.2686292.6-.6.6c-.3544 0-.7016.048-1.0352.1424-.20628515.05830575-.42800625.00213067-.58164308-.14736465-.15363684-.14949531-.21584833-.36959895-.1632-.57740001.05264832-.20780105.21215792-.3717296.41844308-.43003534.44-.124.8968-.1876 1.3616-.1876zm-7.90660001 4.92060002c.28265932.17319648.37139649.54274068.19820001.82539998-.152.2472-.2024.4592-.17.6432.2212 1.2548 3.9604 1.9416 8.33 1.1712 4.3692-.7704 7.648-2.6948 7.4268-3.9496-.03-.1716-.1364-.3408-.3352-.51-.2523941-.21472831-.2829283-.59340587-.0682-.8458s.5934059-.28292831.8458-.0682c.4.3404.6576.7504.7396 1.216.392 2.2256-3.4152 4.4604-8.4004 5.3396l-.3352.0564c-4.8436.786-9.0012-.0252-9.3852-2.2012-.0868-.4944.0332-.9964.3288-1.4788.1727965-.28265932.54234066-.37139647.82499999-.19819998z" fill="#6b7b8d"/></g></svg>

<?xml version="1.0" encoding="UTF-8"?>
<svg width="20px" height="20px" viewBox="0 0 20 20" version="1.1" xmlns="http://www.w3.org/2000/svg" xmlns:xlink="http://www.w3.org/1999/xlink">
    <title>首页，地球</title>
    <g id="页面-1" stroke="none" stroke-width="1" fill="none" fill-rule="evenodd">
        <g id="建木自动化-首页（链接弹窗）" transform="translate(-616.000000, -517.000000)">
            <g id="首页，地球" transform="translate(616.000000, 517.000000)">
                <rect id="矩形" fill="#000000" fill-rule="nonzero" opacity="0" x="0" y="0" width="20" height="20"></rect>
                <path d="M17.2820634,11.311795 C17.2804038,11.3274163 17.2781222,11.3430936 17.2752,11.3588 C16.6296,14.8388 13.5808,17.400012 10,17.400012 C7.36122115,17.4010148 4.92840856,15.9970956 3.60599377,13.7276909 L5.27620006,14.0179338 C6.44032193,15.3866731 8.16043347,16.2008299 10,16.2 C12.6397034,16.2 14.9344116,14.538511 15.8162094,12.154285 L17.2820634,11.311795 Z M10,2.6 C13.6124,2.6 16.68,5.206 17.2908,8.7268 C17.3474644,9.05331074 17.1287107,9.36393557 16.8022,9.42059998 C16.4756893,9.47726439 16.1650644,9.25851073 16.1084,8.932 C15.5968,5.984 13.0264,3.8 10,3.8 C6.576,3.8 3.8,6.576 3.8,10 C3.8,10.376 3.8332,10.7472 3.8992,11.1112 C3.93919541,11.3229221 3.86259389,11.5398333 3.69851149,11.6794859 C3.53442909,11.8191386 3.30806331,11.8600868 3.10545529,11.7867664 C2.90284727,11.713446 2.75511073,11.5371163 2.7184,11.3248 C2.63945997,10.8876205 2.599835,10.4442492 2.59999949,10 C2.59999949,5.9132 5.9132,2.6 10,2.6 Z M12.3376,5.5792 C13.4056994,6.14530748 14.2334058,7.07812856 14.6684,8.206 C14.7811242,8.51369489 14.6261282,8.85491786 14.3202433,8.97246505 C14.0143584,9.09001223 13.6707411,8.94039926 13.5484,8.6364 C13.2172721,7.77921964 12.5879227,7.07033162 11.776,6.64 C11.4869491,6.48302543 11.3781673,6.12259506 11.5321124,5.83191945 C11.6860576,5.54124384 12.0453314,5.4287011 12.3376,5.5796 L12.3376,5.5792 Z M10,5 C10.3313708,5 10.6,5.26862915 10.6,5.6 C10.6,5.93137085 10.3313708,6.2 10,6.2 C9.6456,6.2 9.2984,6.248 8.9648,6.3424 C8.75851485,6.40070575 8.53679375,6.34453067 8.38315692,6.19503535 C8.22952008,6.04554004 8.16730859,5.8254364 8.21995692,5.61763534 C8.27260524,5.40983429 8.43211484,5.24590574 8.6384,5.1876 C9.0784,5.0636 9.5352,5 10,5 Z M2.09339999,9.92060002 C2.37605931,10.0937965 2.46479648,10.4633407 2.2916,10.746 C2.1396,10.9932 2.0892,11.2052 2.1216,11.3892 C2.3428,12.644 6.082,13.3308 10.4516,12.5604 C14.8208,11.79 18.0996,9.8656 17.8784,8.6108 C17.8484,8.4392 17.742,8.27 17.5432,8.1008 C17.2908059,7.88607169 17.2602717,7.50739413 17.475,7.255 C17.6897283,7.00260587 18.0684059,6.97207169 18.3208,7.1868 C18.7208,7.5272 18.9784,7.9372 19.0604,8.4028 C19.4524,10.6284 15.6452,12.8632 10.66,13.7424 L10.3248,13.7988 C5.4812,14.5848 1.3236,13.7736 0.9396,11.5976 C0.8528,11.1032 0.9728,10.6012 1.2684,10.1188 C1.4411965,9.83614068 1.81074066,9.74740353 2.09339999,9.92060002 Z" id="形状" fill="#6B7B8D"></path>
            </g>
        </g>
    </g>
</svg>
